example/source/cyrillic.svg

<svg xmlns="http://www.w3.org/2000/svg" width="650" height="347.078" font-size="15" font-family="Verdana, Helvetica, sans-serif"><defs><pattern id="a" patternUnits="userSpaceOnUse" width="7" height="7"><path d="M0 7l7-7" stroke="#e8e9ea" fill="none"/></pattern></defs><path fill="url(#a)" d="M0 2h650v266h-650z"/><g class="field"><text fill="#284b81" font-weight="bold" font-size=".8em" transform="translate(25 20)"><tspan dy="0" x="0">Динамика объёмов технологического присоединения</tspan><tspan dy="1.5em" x="0">генерирующих энергоустановок заявителей всего по Обществу, МВт</tspan></text><g class="graph-area"><g class="y axis" fill="#284b81" font-size=".8em"><text class="tick" transform="translate(25 221.801)" dominant-baseline="central">2010</text><text class="tick" transform="translate(25 151.304)" dominant-baseline="central">2011</text><text class="tick" transform="translate(25 80.808)" dominant-baseline="central">2012</text></g><g class="layer-0 layer" fill="#284b81" stroke="#284b81"><path d="M82 193.602h467.158v17.799h-467.158zM82 123.106h468v17.799h-468zM82 52.609h75.368v17.799h-75.368z"/><text class="label" transform="translate(554.158 203.002)" font-size=".667em" fill="#368cc5" dominant-baseline="central">221.9</text><text class="label" transform="translate(555 132.505)" font-size=".667em" fill="#368cc5" dominant-baseline="central">222.3</text><text class="label" transform="translate(162.368 62.009)" font-size=".667em" fill="#368cc5" dominant-baseline="central">35.8</text></g><g class="layer-1 layer" fill="#c19a59" stroke="#c19a59"><path d="M82 212.401h407.579v17.799h-407.579zM82 141.905h37.895v17.799h-37.895z"/><text class="label" transform="translate(494.579 221.801)" font-size=".667em" fill="#368cc5" dominant-baseline="central">193.6</text><text class="label" transform="translate(124.895 151.304)" font-size=".667em" fill="#368cc5" dominant-baseline="central">18.0</text><text class="label" transform="translate(87 80.808)" font-size=".667em" fill="#368cc5" dominant-baseline="central">0.0</text></g><g class="layer-2 layer" fill="#3e6cb1" stroke="#3e6cb1"><path d="M82 231.201h84.211v17.799h-84.211zM82 90.207h231.579v17.799h-231.579z"/><text class="label" transform="translate(171.211 240.6)" font-size=".667em" fill="#368cc5" dominant-baseline="central">40.0</text><text class="label" transform="translate(87 170.103)" font-size=".667em" fill="#368cc5" dominant-baseline="central">0.0</text><text class="label" transform="translate(318.579 99.607)" font-size=".667em" fill="#368cc5" dominant-baseline="central">110.0</text></g></g><g class="legend" font-size=".733em"><g class="legend-item" fill="#284b81"><path d="M0 290h15v15h-15z"/><text dy="7.5" font-size="1.091em" dx="22.5" dominant-baseline="central" transform="translate(25 20) translate(-25 270)">Объем поданных заявок на ТП</text></g><g class="legend-item"><path fill="#c19a59" d="M229 290h15v15h-15z"/><text fill="#284b81" dy="7.5" font-size="1.091em" dx="22.5" dominant-baseline="central" transform="translate(229 290)">Объем заключенных договоров на ТП</text></g><g class="legend-item"><path fill="#3e6cb1" d="M0 320h15v15h-15z"/><text fill="#284b81" dy="7.5" font-size="1.091em" dx="22.5" dominant-baseline="central" transform="translate(0 320)">Объем исполненных договоров ТП</text></g></g></g><path d="M0 270h650M0 0h650" stroke="#dedfe0"/></svg>

<svg xmlns="http://www.w3.org/2000/svg" width="650" height="347.078" font-size="15" font-family="Verdana, Helvetica, sans-serif"><defs><pattern id="a" patternUnits="userSpaceOnUse" width="7" height="7"><path d="M0 7l7-7" stroke="#e8e9ea" fill="none"/></pattern></defs><path fill="url(#a)" d="M0 2h650v266H0z"/><g class="field"><text fill="#284b81" font-weight="bold" font-size=".8em" transform="translate(25 20)"><tspan dy="0" x="0">Динамика объёмов технологического присоединения</tspan><tspan dy="1.5em" x="0">генерирующих энергоустановок заявителей всего по Обществу, МВт</tspan></text><g class="graph-area"><g class="y axis" fill="#284b81" font-size=".8em"><text class="tick" transform="translate(25 221.801)" dominant-baseline="central">2010</text><text class="tick" transform="translate(25 151.304)" dominant-baseline="central">2011</text><text class="tick" transform="translate(25 80.808)" dominant-baseline="central">2012</text></g><g class="layer-0 layer" fill="#284b81" stroke="#284b81"><path d="M82 193.602h467.158v17.8H82zM82 123.106h468v17.8H82zM82 52.61h75.368v17.798H82z"/><text class="label" transform="translate(554.158 203.002)" font-size=".667em" fill="#368cc5" dominant-baseline="central">221.9</text><text class="label" transform="translate(555 132.505)" font-size=".667em" fill="#368cc5" dominant-baseline="central">222.3</text><text class="label" transform="translate(162.368 62.009)" font-size=".667em" fill="#368cc5" dominant-baseline="central">35.8</text></g><g class="layer-1 layer" fill="#c19a59" stroke="#c19a59"><path d="M82 212.4h407.58v17.8H82zM82 141.905h37.895v17.8H82z"/><text class="label" transform="translate(494.579 221.801)" font-size=".667em" fill="#368cc5" dominant-baseline="central">193.6</text><text class="label" transform="translate(124.895 151.304)" font-size=".667em" fill="#368cc5" dominant-baseline="central">18.0</text><text class="label" transform="translate(87 80.808)" font-size=".667em" fill="#368cc5" dominant-baseline="central">0.0</text></g><g class="layer-2 layer" fill="#3e6cb1" stroke="#3e6cb1"><path d="M82 231.2h84.21V249H82zM82 90.207h231.58v17.8H82z"/><text class="label" transform="translate(171.211 240.6)" font-size=".667em" fill="#368cc5" dominant-baseline="central">40.0</text><text class="label" transform="translate(87 170.103)" font-size=".667em" fill="#368cc5" dominant-baseline="central">0.0</text><text class="label" transform="translate(318.579 99.607)" font-size=".667em" fill="#368cc5" dominant-baseline="central">110.0</text></g></g><g class="legend" font-size=".733em"><g class="legend-item" fill="#284b81"><path d="M0 290h15v15H0z"/><text dy="7.5" font-size="1.091em" dx="22.5" dominant-baseline="central" transform="translate(25 20) translate(-25 270)">Объем поданных заявок на ТП</text></g><g class="legend-item"><path fill="#c19a59" d="M229 290h15v15h-15z"/><text fill="#284b81" dy="7.5" font-size="1.091em" dx="22.5" dominant-baseline="central" transform="translate(229 290)">Объем заключенных договоров на ТП</text></g><g class="legend-item"><path fill="#3e6cb1" d="M0 320h15v15H0z"/><text fill="#284b81" dy="7.5" font-size="1.091em" dx="22.5" dominant-baseline="central" transform="translate(0 320)">Объем исполненных договоров ТП</text></g></g></g><path d="M0 270h650M0 0h650" stroke="#dedfe0"/></svg>
